X:1
T:Are You Coming Home Tonight?
T:Are You Coming Home Tonight?
T:James McGranahan (1840-1907)
T:C. C.
T:Public Domain Courtesy of the Cyber Hymnal™
T:Public Domain Courtesy of the Cyber Hymnal™
C:James McGranahan (1840-1907)
Z:Public Domain
Z:Courtesy of the Cyber Hymnal™
%%score ( 1 2 ) ( 3 4 )
L:1/8
Q:1/4=103
M:4/4
K:Ab
V:1 treble 
V:2 treble 
V:3 bass 
V:4 bass 
V:1
 [CE][CE] | [CA]<[CA] [CA]>[DB] [Ec]2 [DB][CA] | [DG][DF] [DF]>[D=E] [DF]3 F | %3
w: 1.~Are you|com- ing home, ye wand- r’ers, Whom|Je- sus died to win, All|
w: 2.~Are you|com- ing home, ye lost ones? Be-|hold your Lord doth wait; Come,|
w: 3.~Are you|com- ing home, ye guilt- y, Who|bear the load of sin; Out-|
 [=EG][EG][FA][FA] [Fd]2 [Ec][DB] | [CA][EG][EA][Ec] !fermata![EB]2 [DE][DE] | %5
w: foot- sore, lame and wear- y, Your|gar- ments stained with sin; Will you|
w: then no long- er lin- ger, Come|ere it be too late; Will you|
w: side you’ve long been stand- ing, Come|now and ven- ture in; Will you|
 [CA]>[CA] [CA][DB] [Ec]2 [DB][CA] | [DG][DF] [DF]>[D=E] [DF]2 [DF][DF] | %7
w: seek the blood of Je- sus To|wash your gar- ments white; Will you|
w: come and let Him save you, O|trust His love and might; Will you|
w: heed the Sav- ior’s prom- ise, And|dare to trust Him quite; ~ “Come|
 [CE][EA][_Gc][Ge] [Fe][Fd][FA][FB] | [Ec]<[Ec]"^riten." [Ec]>[DB] !fermata![CA]2 ||"^Refrain" FA | %10
w: trust His pre- cious prom- ise, Are you|com- ing home to- night?||
w: come while He is call- ing, Are you|com- ing home to- night?|Are you|
w: un- to Me,” saith Je- sus, Are you|com- ing home to- night?||
 [Fd]<[Fd] [Fd]>[Fd] [Fd]2 Fd | [Ec]<[Ec] [Ec]>[Ec] [Ec]2 [CE][Ec] | %12
w: ||
w: com- ing home to- night, Are you|com- ing home to- night, Are you|
w: ||
 [DB]<[DB] [DB]>[DB] [DB][CA][CA][DB] | [Ec][CA] [CA]>[DF] [CE]2 FA | %14
w: ||
w: com- ing home to Je- sus, Out of|dark- ness in- to light? Are you|
w: ||
 [Fd]<[Fd] [Fd]>[Fd] [Fd]2 Fd | [Ec]<[Ec] [Ec]>[Ec] [Ec]2 [EA][EB] | %16
w: ||
w: com- ing home to- night, Are you|com- ing home to- night, To your|
w: ||
 [Ec][Ee][_Ge][Ge] [Fe]!fermata![Fd]/ z/ [FA][FB] | [Ec]<[Ec] !fermata![Ec]>[DB] !fermata![CA]2 |] %18
w: ||
w: lov- ing, heav’n- ly Fa- ther, Are you|com- ing home to- night?|
w: ||
V:2
 x2 | x8 | x7 F | x8 | x8 | x8 | x8 | x8 | x6 || x2 | x8 | x8 | x8 | x8 | x8 | x8 | x8 | x6 |] %18
V:3
 [A,,A,][A,,A,] | [A,,E,]<[A,,E,] [A,,E,]>[A,,E,] [A,,A,]2 [A,,A,][A,,A,] | %2
 [D,A,][D,A,] [D,A,]>[D,A,] [D,A,]3 [D,A,] | [C,C][C,C][F,C][F,C] [D,A,]2 [E,A,][E,G,] | %4
 [A,,A,][B,,E,][C,E,][A,,A,] !fermata![E,G,]2 [E,G,][E,G,] | %5
 [A,,A,]>[A,,E,] [A,,E,][A,,E,] [A,,A,]2 [A,,A,][A,,A,] | %6
 [D,A,][D,A,] [D,A,]>[D,A,] [D,A,]2 [D,A,][D,A,] | %7
 [A,,A,][A,,C][A,E][A,C] [D,A,][D,A,][D,A,][D,A,] | [E,A,]<[E,A,] [E,A,]>E, !fermata![A,,E,]2 || %9
 z2 | [D,A,]<[D,A,] [D,A,]>[D,A,] [D,A,]2 z2 | %11
 [A,,A,]<[A,,A,] [A,,A,]>[A,,A,] [A,,A,]2 [A,,E,][A,,A,] | %12
 [E,G,]<[E,G,] [E,G,]>[E,G,] [E,G,][E,A,][E,A,][E,G,] | %13
 [A,,A,][A,,E,] [A,,E,]>[A,,A,] [A,,A,]2 z2 | [D,A,]<[D,A,] [D,A,]>[D,A,] [D,A,]2 z2 | %15
 [A,,A,]<[A,,A,] [A,,A,]>[A,,A,] [A,,A,]2 [C,A,][E,G,] | %16
 A,[A,C][A,C][A,C] [D,A,]!fermata![D,A,]/ z/ [D,A,][D,A,] | %17
 [E,A,]<[E,A,] !fermata![E,A,]>E, !fermata![A,,E,]2 |] %18
V:4
 x2 | x8 | x8 | x8 | x8 | x8 | x8 | x8 | x7/2 E,/ x2 || x2 | x8 | x8 | x8 | x8 | x8 | x8 | A, x7 | %17
 x7/2 E,/ x2 |] %18

